FINK
CUT[ICHSTAND AUF HOHEM BERGE]
REG[Europa, Mitteleuropa, Deutschland]
KEY[F0883  16  F 2/4]
MEL[34  5_.+15342  3__2_
    2_  3_+165_4#_  5__0_
    5_  +1_+1_765_  6__5_
    5_  4__3_
    5_  6_543_2_  1__0_ //] >>
FCT[erzaehlendes Volks - Lied, Ballade]
